X:19
T: Monroe's Hornpipe
C: Bill Monroe
S: MandoZine TablEdit Archives
Z: TablEdited by Larry Tanner for MandoZine
L: 1/8
Q: 460
M: 4/4
K: A
 |: "A"A,B, CE "D"DE FA | "E"EF GB "A"AF EC | A,B, CE "D"DE FA | "E"EF GB "A"A4 | A,B, CE "D"DE FA |
 "E"EF GB "A"AF EC | A,B, CE "D"DE FA |1 E"E"F GB "A"A4 :|2 E"E"F GB "A"A2 EF | "A"A2 AB ce cB |
 Ac BA FE CE | A2 AB ce cB | Ac BA "D"F2 EF | "A"A2 AB ce cB | Ac BA EF Ae | ae cA "D"fd BA |
 "E"cB AG "A"A2 EF | "A"A2 AB ce cB | Ac BA FE CE | A2 AB ce cB | Ac BA "D"F2 EF |
 "A"A2 AB ce cB | Ac BA EF Ae | ae cA "D"fd BA | "E"cB AG "A"A4 |
